X:1015
T:Handy with the Stick
R:jig
D:Tada
Z:transcribed by Dave Marshall
M:6/8
K:Emin
|: Bed BcA | ~G3 BGE | DEG GAB | edB cBA |
Bed BcA | ~G3 BGE | DEG GAB | Bed e3 :|
|: gdB GBd | gfa gdB | Bcc EAB | ced cBA |
GAB Acc | GBA GFE | DEG GAB | Bed e3 :|
